X:1
T:Southwind
L:1/4
M:3/4
I:linebreak $
K:G
V:1 treble nm="Voice" snm="Voice"
V:1
 d c | B3/2 A/ G | B c d | A3 | d/c/ | B3/2 A/ G | E D E | [GA]2 | G2 d/c/ |$ B3/2 A/ G | B c d | %11
 A3/2 G F | [Ac]2 d | B3/2 A/ G | E D E | G B d || g2 g |$ g3/2 f/ e | d3- | [Fd]2 d | B3/2 A/ G | %21
 B c d | A2 | A2 d | g2 g | g3/2 f/ e | d2 |$ d2 c |"C" B3/2 A/ G | A/ c3/2 F | [GA]2 | G2 |] %32
